symbols/lopa.svg

<svg width="63" height="26" viewBox="0 0 63 26" xmlns="http://www.w3.org/2000/svg"><g stroke="#979797" fill="none" fill-rule="evenodd"><path d="M4 25c.6-7.68 2.6-12.82 5.94-15.4C14.5 6.05 22.7 1.27 31.4 1.55c10.98.35 19.33 6.15 23.72 11.7 1.94 2.48 3.18 6.4 3.7 11.74" stroke-width="1.4"/><path d="M8.76 10.8v13.94m3.06-16.26v16.4M14.4 6.76v17.97M16.98 5.6v19m2.87-20.52v20.44m3.3-21.88V24.5M26.6 1.7v22.8m3.1-22.8v22.87m3.66-22.73v22.68M36.8 2.14v21.98m3.47-21.17v21.3m3.43-20V24.3m3.7-18.06v18.03M50.53 8.4v16.23m3.94-12.13v11.82m-54.4.62h62.4"/></g></svg>

<svg width="63" height="26" viewBox="0 0 63 26" xmlns="http://www.w3.org/2000/svg"><title>Artboard 3</title><g stroke="#979797" fill="none" fill-rule="evenodd"><path d="M4 25c.6-7.68 2.6-12.82 5.94-15.4C14.5 6.05 22.7 1.27 31.4 1.55c10.98.35 19.33 6.15 23.72 11.7 1.94 2.48 3.18 6.4 3.7 11.74" stroke-width="1.4"/><path d="M8.76 10.8v13.94M11.82 8.48v16.4M14.4 6.76v17.97M16.98 5.6V24.6M19.85 4.08v20.44M23.16 2.64V24.5M26.6 1.7v22.8M29.7 1.7v22.87M33.36 1.84v22.68M36.8 2.14v21.98M40.27 2.95v21.3M43.7 4.26V24.3M47.4 6.24v18.03M50.53 8.4v16.23M54.47 12.5v11.82M.07 24.94h62.4"/></g></svg>
